round/svg/donut_large.svg

<svg xmlns="http://www.w3.org/2000/svg" width="24" height="24"><path fill="none" d="M0 0h24v24H0V0z"/><g fill="currentColor"><path d="M14.07 5.32C16.26 6 18 7.74 18.68 9.93c.19.63.76 1.07 1.41 1.07h.04c1 0 1.72-.96 1.43-1.91-.97-3.18-3.48-5.69-6.66-6.66-.94-.29-1.9.43-1.9 1.43v.04c0 .66.44 1.23 1.07 1.42zM18.68 14.07a7.014 7.014 0 0 1-4.61 4.61c-.63.19-1.07.76-1.07 1.41v.04c0 1 .96 1.72 1.91 1.43 3.18-.97 5.69-3.48 6.66-6.66.29-.95-.43-1.91-1.42-1.91h-.05c-.66.01-1.23.45-1.42 1.08zM11 20.11c0-.67-.45-1.24-1.09-1.44C7.07 17.78 5 15.13 5 12s2.07-5.78 4.91-6.67c.64-.2 1.09-.77 1.09-1.44v-.01c0-1-.97-1.74-1.93-1.44C4.98 3.69 2 7.5 2 12c0 4.5 2.98 8.31 7.07 9.56.96.3 1.93-.44 1.93-1.45z"/></g></svg>

<?xml version="1.0" encoding="utf-8"?>
<!-- Generator: Adobe Illustrator 19.1.0, SVG Export Plug-In . SVG Version: 6.00 Build 0)  -->
<svg version="1.1" xmlns="http://www.w3.org/2000/svg" xmlns:xlink="http://www.w3.org/1999/xlink" x="0px" y="0px" width="24px"
	 height="24px" viewBox="0 0 24 24" enable-background="new 0 0 24 24" xml:space="preserve">
<g id="Header_x2F_BG" display="none">
	<rect x="-182" y="-314" display="inline" fill="#F1F1F2" width="520" height="520"/>
</g>
<g id="Bounding_Boxes">
	<g id="ui_x5F_spec_x5F_header_copy_3">
	</g>
	<path fill="none" d="M0,0h24v24H0V0z"/>
</g>
<g id="Rounded" fill="currentColor">
	<g id="ui_x5F_spec_x5F_header_copy_5">
	</g>
	<g>
		<path d="M14.07,5.32C16.26,6,18,7.74,18.68,9.93c0.19,0.63,0.76,1.07,1.41,1.07h0.04c1,0,1.72-0.96,1.43-1.91
			c-0.97-3.18-3.48-5.69-6.66-6.66C13.96,2.14,13,2.86,13,3.86V3.9C13,4.56,13.44,5.13,14.07,5.32z"/>
		<path d="M18.68,14.07c-0.68,2.2-2.42,3.93-4.61,4.61C13.44,18.87,13,19.44,13,20.09v0.04c0,1,0.96,1.72,1.91,1.43
			c3.18-0.97,5.69-3.48,6.66-6.66c0.29-0.95-0.43-1.91-1.42-1.91c-0.02,0-0.03,0-0.05,0C19.44,13,18.87,13.44,18.68,14.07z"/>
		<path d="M11,20.11c0-0.67-0.45-1.24-1.09-1.44C7.07,17.78,5,15.13,5,12s2.07-5.78,4.91-6.67C10.55,5.13,11,4.56,11,3.89V3.88
			c0-1-0.97-1.74-1.93-1.44C4.98,3.69,2,7.5,2,12c0,4.5,2.98,8.31,7.07,9.56C10.03,21.86,11,21.12,11,20.11L11,20.11z"/>
	</g>
</g>
<g id="Sharp" display="none">
	<g id="ui_x5F_spec_x5F_header_copy_4" display="inline">
	</g>
	<g display="inline">
		<path d="M13,5.08c3.06,0.44,5.48,2.86,5.92,5.92h3.03C21.48,6.28,17.72,2.52,13,2.05V5.08z"/>
		<path d="M18.92,13c-0.44,3.06-2.86,5.48-5.92,5.92v3.03c4.72-0.47,8.48-4.23,8.95-8.95H18.92z"/>
		<path d="M11,18.92c-3.39-0.49-6-3.4-6-6.92s2.61-6.43,6-6.92V2.05C5.95,2.55,2,6.81,2,12c0,5.19,3.95,9.45,9,9.95V18.92z"/>
	</g>
</g>
<g id="Outline" display="none">
	<g id="ui_x5F_spec_x5F_header" display="inline">
	</g>
	<g display="inline">
		<path d="M13,5.08c3.06,0.44,5.48,2.86,5.92,5.92h3.03C21.48,6.28,17.72,2.52,13,2.05V5.08z"/>
		<path d="M18.92,13c-0.44,3.06-2.86,5.48-5.92,5.92v3.03c4.72-0.47,8.48-4.23,8.95-8.95H18.92z"/>
		<path d="M11,18.92c-3.39-0.49-6-3.4-6-6.92s2.61-6.43,6-6.92V2.05C5.95,2.55,2,6.81,2,12c0,5.19,3.95,9.45,9,9.95V18.92z"/>
	</g>
</g>
<g id="Duotone" display="none">
	<g id="ui_x5F_spec_x5F_header_copy_2" display="inline">
	</g>
	<g display="inline">
		<path d="M13,5.08c3.06,0.44,5.48,2.86,5.92,5.92h3.03C21.48,6.28,17.72,2.52,13,2.05V5.08z"/>
		<path d="M18.92,13c-0.44,3.06-2.86,5.48-5.92,5.92v3.03c4.72-0.47,8.48-4.23,8.95-8.95H18.92z"/>
		<path d="M11,18.92c-3.39-0.49-6-3.4-6-6.92s2.61-6.43,6-6.92V2.05C5.95,2.55,2,6.81,2,12c0,5.19,3.95,9.45,9,9.95V18.92z"/>
	</g>
</g>
<g id="Fill" display="none">
	<g id="ui_x5F_spec_x5F_header_copy" display="inline">
	</g>
	<g display="inline">
		<path d="M13,5.08c3.06,0.44,5.48,2.86,5.92,5.92h3.03C21.48,6.28,17.72,2.52,13,2.05V5.08z"/>
		<path d="M18.92,13c-0.44,3.06-2.86,5.48-5.92,5.92v3.03c4.72-0.47,8.48-4.23,8.95-8.95H18.92z"/>
		<path d="M11,18.92c-3.39-0.49-6-3.4-6-6.92s2.61-6.43,6-6.92V2.05C5.95,2.55,2,6.81,2,12c0,5.19,3.95,9.45,9,9.95V18.92z"/>
	</g>
</g>
<g id="nyt_x5F_exporter_x5F_info" display="none">
</g>
</svg>
